icons/sparkles-fill-16.svg

<svg width="16" height="16" viewBox="0 0 16 16" xmlns="http://www.w3.org/2000/svg">
<path d="M9.60016 2.27941C9.73655 1.90686 10.2634 1.90686 10.3998 2.27941L10.8069 3.39126C11.4531 5.1562 12.8438 6.54694 14.6087 7.1931L15.7206 7.60016C16.0931 7.73655 16.0931 8.26345 15.7206 8.39984L14.6087 8.8069C12.8438 9.45306 11.4531 10.8438 10.8069 12.6087L10.3998 13.7206C10.2634 14.0931 9.73655 14.0931 9.60016 13.7206L9.1931 12.6087C8.54694 10.8438 7.1562 9.45306 5.39126 8.8069L4.27941 8.39984C3.90686 8.26345 3.90686 7.73655 4.27941 7.60016L5.39126 7.1931C7.1562 6.54694 8.54694 5.1562 9.1931 3.39126L9.60016 2.27941Z"/>
<path d="M5.3334 11.1164C5.39023 10.9612 5.60977 10.9612 5.6666 11.1164L5.83621 11.5797C6.10544 12.3151 6.68492 12.8946 7.42031 13.1638L7.88358 13.3334C8.03881 13.3902 8.03881 13.6098 7.88358 13.6666L7.42031 13.8362C6.68492 14.1054 6.10544 14.6849 5.83621 15.4203L5.6666 15.8836C5.60977 16.0388 5.39023 16.0388 5.3334 15.8836L5.16379 15.4203C4.89456 14.6849 4.31508 14.1054 3.57969 13.8362L3.11642 13.6666C2.96119 13.6098 2.96119 13.3902 3.11642 13.3334L3.57969 13.1638C4.31508 12.8946 4.89456 12.3151 5.16379 11.5797L5.3334 11.1164Z"/>
<path d="M2.80008 0.139705C2.86828 -0.0465685 3.13172 -0.0465683 3.19992 0.139705L3.40345 0.695629C3.72653 1.5781 4.4219 2.27347 5.30437 2.59655L5.8603 2.80008C6.04657 2.86828 6.04657 3.13172 5.8603 3.19992L5.30437 3.40345C4.4219 3.72653 3.72653 4.4219 3.40345 5.30437L3.19992 5.8603C3.13172 6.04657 2.86828 6.04657 2.80008 5.8603L2.59655 5.30437C2.27347 4.4219 1.5781 3.72653 0.695628 3.40345L0.139705 3.19992C-0.0465685 3.13172 -0.0465683 2.86828 0.139705 2.80008L0.695629 2.59655C1.5781 2.27347 2.27347 1.5781 2.59655 0.695628L2.80008 0.139705Z"/>
</svg>

<svg xmlns="http://www.w3.org/2000/svg" width="16" height="16" viewBox="0 0 16 16"><path d="M9.6 2.279a.426.426 0 0 1 .8 0l.407 1.112a6.386 6.386 0 0 0 3.802 3.802l1.112.407a.426.426 0 0 1 0 .8l-1.112.407a6.386 6.386 0 0 0-3.802 3.802l-.407 1.112a.426.426 0 0 1-.8 0l-.407-1.112a6.386 6.386 0 0 0-3.802-3.802L4.279 8.4a.426.426 0 0 1 0-.8l1.112-.407a6.386 6.386 0 0 0 3.802-3.802L9.6 2.279Zm-4.267 8.837a.178.178 0 0 1 .334 0l.169.464a2.662 2.662 0 0 0 1.584 1.584l.464.169a.178.178 0 0 1 0 .334l-.464.169a2.662 2.662 0 0 0-1.584 1.584l-.169.464a.178.178 0 0 1-.334 0l-.169-.464a2.662 2.662 0 0 0-1.584-1.584l-.464-.169a.178.178 0 0 1 0-.334l.464-.169a2.662 2.662 0 0 0 1.584-1.584l.169-.464ZM2.8.14a.213.213 0 0 1 .4 0l.203.556a3.2 3.2 0 0 0 1.901 1.901l.556.203a.213.213 0 0 1 0 .4l-.556.203a3.2 3.2 0 0 0-1.901 1.901L3.2 5.86a.213.213 0 0 1-.4 0l-.203-.556A3.2 3.2 0 0 0 .696 3.403L.14 3.2a.213.213 0 0 1 0-.4l.556-.203A3.2 3.2 0 0 0 2.597.696L2.8.14Z"/></svg>
